X:1
T:Wee Buns
M:6/8
L:1/8
Q:80
C:Composed by Richard Parkes
S:Jig
K:HP
|: a | \
{fg}f2d{g}Ad{c}d | \
{g}f2d{g}fa{g}a | \
{fg}f2d{g}Ad{c}d |
{g}ce{A}e{gef}e2a{fg}f2d{g}Ad{c}d | \
{g}f2d{g}fa{g}a | \
{gcd}c2e{g}fec |
{Gdc}d3{gdc}d2 :: \
e | \
{gfg}f2e{g}fa{g}a | \
ea{g}ada{g}a |
{fg}f2e{g}fed | \
{g}ce{A}e{gef}e2f{gfg}f2e{g}fa{g}a | \
ea{g}ada{g}a |
{cd}c2e{g}fec | \
{Gdc}d3{gdc}d2 :|
